X:1
T:Yes, There is Pardon for You
T:Hubert Platt Main
T:Yes, There is Pardon for You
T:Public Domain
T:Public Domain
C:Hubert Platt Main
Z:Public Domain
%%score ( 1 2 ) ( 3 4 )
L:1/8
M:6/8
K:Ab
V:1 treble 
V:2 treble 
V:3 bass 
V:4 bass 
V:1
 [CE] | [CE][A,C][B,D] [CE][Ec][EA] | [DG][CA][DB] [CA]2 E | [DF][DF][EF] [Fd][Fc][FB] | %4
w: 1.~Oh|come to the Sav- ior, be-|lieve in His name, And|Him your heart to re- new;|
w: 2.~The|way of trans- gress- ion that|leads un- to death, Oh,|will you long- er pur- sue?|
w: 3.~Be|warned of your dan- ger; es-|cape to the cross; Your|ly sal- va- tion is there;|
 ([EA]3 [EG]2) [EB] | [EB][Ec][EB] [EB][EG][EA] | [EB][Ec][EB] [EB]2 [EB] | %7
w: He * waits|to be gra- cious, O turn|not a- way, For now|
w: How * can|you re- ject the sweet mes-|sage of love That of-|
w: Be- * lieve,|and that mo- ment the Spir-|it of grace Will an-|
 [Ec][Ec][Ec] [A=d][Ac][Fd] | ([Ge]3 .[Bd]3) ||"^Refrain" [Ac]>[EB][EA] [EA]>[EG][EA] | %10
w: there is par- don for you.|||
w: fers full par- don for you?|||
w: swer your pen- i- tent prayer.|||
 ([EB]3 [EB]3) | [Ed]>[Ec][EB] [DB][CA][EB] | ([Ec]3 [Ec]2) [Ae] | [Ae]>[Ed][Ec] [Ec][EB][EA] | %14
w: ||||
w: ||||
w: ||||
 [DF]3 .[Fd]2 [Fd] | [Ec]>[DB][CA] [CA]>[DB][B,G] | [CA]4- [CA] |] %17
w: |||
w: |||
w: |||
V:2
 x | x6 | x5 E | x6 | x6 | x6 | x6 | x6 | x6 || x6 | x6 | x6 | x6 | x6 | x6 | x6 | x5 |] %17
w: ||ask|||||||||||||||
w: ||why|||||||||||||||
w: ||on-|||||||||||||||
V:3
 [A,,A,] | [A,,A,][A,,E,][A,,E,] [A,,A,][A,,A,][C,A,] | [E,B,][E,A,][E,G,] [A,,A,]2 [C,A,] | %3
w: ~|~ ~ ~ ~ ~ ~|~ ~ ~ ~ ~|
 [D,A,][D,A,][C,=A,] [B,,B,][C,A,][D,B,] | ([E,C]3 [E,B,]2) [E,G,] | %5
w: ~ ~ ~ ~ ~ ~|~ * ~|
 [E,G,][E,A,][E,G,] [E,G,]E,[E,F,] | [E,G,][E,A,][E,G,] [E,G,]2 [E,G,] | %7
w: ~ ~ ~ ~ ~ ~|~ ~ ~ ~ ~|
 A,A,A, [F,A,][F,A,][F,A,] | ([E,B,]3 .[E,E]3) || [A,,E]>[A,,D][A,,C] [A,,C]>[B,,B,][C,A,] | %10
w: ~ ~ ~ ~ ~ ~|~ *|Yes, there is par- don for|
 ([E,G,]2 [E,G,] [E,G,]3) | [E,B,]>[E,A,][E,G,] [E,G,][E,A,][E,G,] | (A,2 A, A,2) [A,C] | %13
w: you, * *|Yes, there is par- don for|you; * * For|
 [A,C]>[A,B,]A, [A,,A,][B,,G,][C,A,] | [D,A,]3 .[D,A,]2 [D,A,] | [E,A,]>E,E, E,>E,E, | %16
w: Je- sus has died to re-|you, And of-|fers full par- don to you.|
 [A,,E,]4- [A,,E,] |] %17
w: |
V:4
 x | x6 | x6 | x6 | x6 | x6 | x6 | x6 | x6 || x6 | x6 | x6 | x6 | x2 A, x3 | x6 | %15
w: |||||||||||||deem||
 x3/2 E,/E, E,>E,E, | x5 |] %17
w: ||

